X:1
T:Title
%%score { ( 1 3 ) | ( 2 4 ) }
L:1/8
M:4/4
K:Bb
V:1 treble nm="Grand Piano"
V:3 treble 
V:2 bass 
V:4 bass 
V:1
 z4 z2[Q:1/4=100] [DF]2 | [Fd]3 [=E_d] [Ge][F=d][Fc][FB] | G6 z2 | c3 =B dcG[A,EA] |[M:3/4] F6 | %5
[M:1/4] B2 |[M:4/4] B3 G G2 B2 | B3 F F2 [Fd]2 | [Fc]3 [FA] [=Ec][DB][G,B,D][B,CE] | %9
[M:3/4] [F,F]-[F,-_DF-] [F,-=DF-][F,-DF-] [F,EF]2 |[M:1/4] [DF]F |[M:4/4] d2 d4 .c2 | %12
 BAA_A =A2 z A | e-[FBe]e-[_Ae-] [=Ae]2 _A=A | z2 .G2 z2 F2 |[M:3/4] B2 B4 |[M:1/4] [=B,FG]2 | %17
[M:4/4] c2 c4 z2 |[M:9/8] d_d=d [_Af] e2- e z =E |[M:3/4] z2 B4 |] %20
V:2
 z4 z2 [B,,B,]2 | [B,,B,]3 [B,,B,] [B,,B,][B,,B,][C,A,][D,B,] | [E,B,E]2 [D,=B,]2 [C,C]2 [C,B,]2 | %3
 [F,A,E]3 [F,_A,D] [F,=A,F][F,A,E][F,A,E][F,,F,] |[M:3/4] [B,,B,][B,,F,] [C,A,][F,,F,] [B,,B,]2 | %5
[M:1/4][K:treble] [B,DF]2 |[M:4/4] [G,DG]3[K:bass] [G,B,D] [G,B,D]2 [^F,_D=E]2 | %7
 [F,DF]3 [F,B,D] [D,B,D]2 [B,,B,]2 | [C,A,]3 [C,C] [C,G,][C,G,]C,C, |[M:3/4] z B, B,_A, =A,2 | %10
[M:1/4] z[K:treble] D |[M:4/4] [FB]D[K:bass]B,C D2 [B,,B,]2 | [F,CE]2 [F,CE]4 A,C | %13
 A,G,C=B, C2 [F,A,E]2 | z[K:treble] B z B F2[K:bass] D,F, |[M:3/4] z C [_D=E]=D E,2 |[M:1/4] D,2 | %17
[M:4/4] z[K:treble] D[E^F]=E [F,=F]2 [G,_EG][A,C^F] | %18
[M:9/8] z3[K:bass] z3[K:treble] z[K:bass] .F2 |[M:3/4] [F,A,E]2 z G, F,2 |] %20
V:3
 x8 | x8 | z2 F2 =E2 [Ec]2 | x8 |[M:3/4] DD E[A,_D] =D2 |[M:1/4] x2 |[M:4/4] x8 | x8 | x8 | %9
[M:3/4] .[A,C]2 z2 z2 |[M:1/4] x2 |[M:4/4] z AG^F =F2 D-[D^F] | z4 z2 F2 | .[Fc]2 .A2 z4 | %14
 .[Dc]2 [B,D]4 B,[CE] |[M:3/4] [B,D]E z F [EG]2 |[M:1/4] x2 |[M:4/4] [CE]F z G A2 Bc | %18
[M:9/8] z3 z3 z _A2 |[M:3/4] c2 [B,D]_D =D2 |] %20
V:4
 x8 | x8 | x8 | x8 |[M:3/4] x6 |[M:1/4][K:treble] x2 |[M:4/4] x3[K:bass] x5 | x8 | x8 | %9
[M:3/4] F,,6 |[M:1/4] B,2[K:treble] |[M:4/4] B,2[K:bass] B,,4 z2 | z4 z2 F,2 | z2 F,4 z2 | %14
 [B,,F,]2[K:treble] B,,4[K:bass] z2 |[M:3/4] B,,2 B,2 z2 |[M:1/4] x2 |[M:4/4] C,2[K:treble] C2 z4 | %18
[M:9/8] [B,F][K:bass][G,B,=E][F,B,F] [D,B,][K:treble] [B,G]2- [B,G][K:bass]F,-[F,G,] | %19
[M:3/4] z2 B,,4 |] %20

